report_00007_2020-12-11T15:55:29.892Z/meta/score/comparison/line/5_vs_6.svg

<svg width="640" height="500" xmlns="http://www.w3.org/2000/svg" xmlns:xlink="http://www.w3.org/1999/xlink"><path fill="#fff" d="M0 0h640v500H0z"/><defs><path id="d" stroke-width=".222" stroke="currentColor" d="M-1-1h2v2h-2z"/><path id="b" stroke-width=".222" stroke="currentColor" d="M0-1.33l-1.33 2h2.66z"/><path id="f" stroke-width=".222" stroke="currentColor" d="M0 1.33L1.265.411.782-1.067l-1.564-.009-.483 1.487z"/><use xlink:href="#b" id="c" stroke="currentColor" transform="rotate(180)"/><use xlink:href="#d" id="e" stroke="currentColor" transform="rotate(45)"/><circle id="a" stroke-width=".222" stroke="currentColor" cx="0" cy="0" r="1"/></defs><g fill="none" color="#000" stroke="currentColor"><path stroke="#000" d="M62.2 389.1h9m543.8 0h-9"/><text transform="translate(53.9 393)" stroke="none" fill="#000" font-family="Arial" font-size="12" text-anchor="end"><tspan>0.7</tspan></text></g><g fill="none" color="#000" stroke="currentColor"><path stroke="#000" d="M62.2 340.4h9m543.8 0h-9"/><text transform="translate(53.9 344.3)" stroke="none" fill="#000" font-family="Arial" font-size="12" text-anchor="end"><tspan>0.71</tspan></text></g><g fill="none" color="#000" stroke="currentColor"><path stroke="#000" d="M62.2 291.8h9m543.8 0h-9"/><text transform="translate(53.9 295.7)" stroke="none" fill="#000" font-family="Arial" font-size="12" text-anchor="end"><tspan>0.72</tspan></text></g><g fill="none" color="#000" stroke="currentColor"><path stroke="#000" d="M62.2 243.1h9m543.8 0h-9"/><text transform="translate(53.9 247)" stroke="none" fill="#000" font-family="Arial" font-size="12" text-anchor="end"><tspan>0.73</tspan></text></g><g fill="none" color="#000" stroke="currentColor"><path stroke="#000" d="M62.2 194.4h9m543.8 0h-9"/><text transform="translate(53.9 198.3)" stroke="none" fill="#000" font-family="Arial" font-size="12" text-anchor="end"><tspan>0.74</tspan></text></g><g fill="none" color="#000" stroke="currentColor"><path stroke="#000" d="M62.2 145.7h9m543.8 0h-9"/><text transform="translate(53.9 149.6)" stroke="none" fill="#000" font-family="Arial" font-size="12" text-anchor="end"><tspan>0.75</tspan></text></g><g fill="none" color="#000" stroke="currentColor"><path stroke="#000" d="M62.2 97h9M615 97h-9"/><text transform="translate(53.9 100.9)" stroke="none" fill="#000" font-family="Arial" font-size="12" text-anchor="end"><tspan>0.76</tspan></text></g><g fill="none" color="#000" stroke="currentColor"><path stroke="#000" d="M62.2 48.4h9m543.8 0h-9"/><text transform="translate(53.9 52.3)" stroke="none" fill="#000" font-family="Arial" font-size="12" text-anchor="end"><tspan>0.77</tspan></text></g><g fill="none" color="#000" stroke="currentColor"><path stroke="#000" d="M62.2 428v-9m0-400.9v9"/><text transform="translate(62.2 449.9)" stroke="none" fill="#000" font-family="Arial" font-size="12" text-anchor="middle"><tspan>0</tspan></text></g><g fill="none" color="#000" stroke="currentColor"><path stroke="#000" d="M118 428v-9m0-400.9v9"/><text transform="translate(118 449.9)" stroke="none" fill="#000" font-family="Arial" font-size="12" text-anchor="middle"><tspan>10</tspan></text></g><g fill="none" color="#000" stroke="currentColor"><path stroke="#000" d="M173.9 428v-9m0-400.9v9"/><text transform="translate(173.9 449.9)" stroke="none" fill="#000" font-family="Arial" font-size="12" text-anchor="middle"><tspan>20</tspan></text></g><g fill="none" color="#000" stroke="currentColor"><path stroke="#000" d="M229.7 428v-9m0-400.9v9"/><text transform="translate(229.7 449.9)" stroke="none" fill="#000" font-family="Arial" font-size="12" text-anchor="middle"><tspan>30</tspan></text></g><g fill="none" color="#000" stroke="currentColor"><path stroke="#000" d="M285.6 428v-9m0-400.9v9"/><text transform="translate(285.6 449.9)" stroke="none" fill="#000" font-family="Arial" font-size="12" text-anchor="middle"><tspan>40</tspan></text></g><g fill="none" color="#000" stroke="currentColor"><path stroke="#000" d="M341.4 428v-9m0-400.9v9"/><text transform="translate(341.4 449.9)" stroke="none" fill="#000" font-family="Arial" font-size="12" text-anchor="middle"><tspan>50</tspan></text></g><g fill="none" color="#000" stroke="currentColor"><path stroke="#000" d="M397.2 428v-9m0-400.9v9"/><text transform="translate(397.2 449.9)" stroke="none" fill="#000" font-family="Arial" font-size="12" text-anchor="middle"><tspan>60</tspan></text></g><g fill="none" color="#000" stroke="currentColor"><path stroke="#000" d="M453.1 428v-9m0-400.9v9"/><text transform="translate(453.1 449.9)" stroke="none" fill="#000" font-family="Arial" font-size="12" text-anchor="middle"><tspan>70</tspan></text></g><g fill="none" color="#000" stroke="currentColor"><path stroke="#000" d="M508.9 428v-9m0-400.9v9"/><text transform="translate(508.9 449.9)" stroke="none" fill="#000" font-family="Arial" font-size="12" text-anchor="middle"><tspan>80</tspan></text></g><g fill="none" color="#000" stroke="currentColor"><path stroke="#000" d="M564.7 428v-9m0-400.9v9"/><text transform="translate(564.7 449.9)" stroke="none" fill="#000" font-family="Arial" font-size="12" text-anchor="middle"><tspan>90</tspan></text></g><path stroke="#000" d="M62.2 18.1V428H615V18.1H62.2z" fill="none" color="#000"/><text transform="translate(437.8 467.9)" stroke="none" fill="#000" font-family="Arial" font-size="12" text-anchor="end" color="#000"><tspan>pages+cached+noexternal</tspan></text><path stroke="#9400D3" d="M446.1 464h42.2M62.2 418.8l5.6-148.4 5.6-5.1 5.6 86.2 5.5-81 5.6.4 5.6-20.9 5.6 14.7 5.6 45.7h5.6l5.5-18.6 5.6 19 5.6-14.2 5.6-.1 5.6-102.7 5.6 170.9 5.5-80.6 5.6 27.9 5.6-21.7 5.6 1.7 5.6-.6 5.6 128.7 5.5-149.6 5.6-20.4 5.6 15.4 5.6 38.1 5.6-38.1 5.6 24.6 5.5-5.5 5.6 66.3 5.6-80.2 5.6 102.8 5.6-102.9 5.6-76.8 5.6 117 5.5-60.8 5.6 14.5 5.6-69.3 5.6 101.2 5.6-5.8 5.6 6 5.5-31.7 5.6 11.3 5.6 71.6 5.6-154.1 5.6 76.4 5.6 13.3 5.5-90.5 5.6 158.3 5.6-156.7 5.6 96.9 5.6.1 5.6 83.4 5.5-64.9 5.6-43.9 5.6-72.4 5.6 225.3 5.6-53.2 5.6-55 5.5-19.9 5.6-40.5 5.6 60.8 5.6.7 5.6 62.9 5.6-2.7 5.5-69.3 5.6-108.1 5.6 97.4 5.6 80.6 5.6-108.2 5.6 5.4 5.6-.5 5.5-4.6 5.6 109.4 5.6-124.2 5.6 40.2 5.6 129.6 5.6-67.7 5.5-80.8 5.6 24.9 5.6-30.5 5.6 18.6 5.6 67.6 5.6-81.6 5.5.7 5.6 39.1 5.6-21.7 5.6-4.9 5.6 68.2 5.6-156.6 5.5 178.3 5.6-123.6 5.6 123.3 5.6-77.5 5.6-7 5.6 84.5 5.5-102.8 5.6 19.9 5.6 21.1 5.6-40.8" fill="none" color="#000"/><text transform="translate(437.8 485.9)" stroke="none" fill="#000" font-family="Arial" font-size="12" text-anchor="end" color="#000"><tspan>pages+cached+noexternal+nofonts</tspan></text><path stroke="#009E73" d="M446.1 482h42.2M62.2 97.7l5.6-63.5 5.6 134 5.6-52.9 5.5-.2 5.6-9.8 5.6-71.9 5.6 158.1 5.6-165.1 5.6 216 5.5-33.8 5.6-174.8 5.6 71.1 5.6-71.2 5.6 134.3 5.6-62.8 5.5 67 5.6-.1h5.6l5.6-89 5.6-49.2 5.6 64.8L185 126l5.6 89.2 5.6-47.2 5.6-70.7 5.6 74.6 5.6-67 5.5.3 5.6 66.8 5.6 70.2 5.6-158.1 5.6 87.6 5.6-56.4 5.6-30.9 5.5 157.4 5.6-208.1 5.6 64.1 5.6 7.8 5.6-.1 5.6-20.1 5.5-51.4 5.6 49.7 5.6 84.3 5.6.2 5.6-26.3 5.6-36.8 5.5-31.9 5.6-39.5 5.6 50.2 5.6.5 5.6 83.5 5.6-62.7 5.5-7.5 5.6-14.9 5.6 132.1 5.6-73.1 5.6-58.6 5.6 22.1 5.5-.4 5.6-78.7 5.6 79 5.6-70.9 5.6 207.6 5.6-208.2 5.5 50.1 5.6.1 5.6 88.4 5.6 70.2 5.6-74.6 5.6-62.9 5.6.2 5.5 66.9L469.8 26l5.6 57.3 5.6 85 5.6-84.9 5.6 6.3 5.5 52.6 5.6 43.3 5.6-13.2 5.6-.5 5.6-138.4 5.6.1 5.5 57.2 5.6 14.6 5.6-22.1 5.6-49.5 5.6 138.1 5.6 69.7 5.5-136.3 5.6.1 5.6 62.9 5.6-134.1 5.6 38.2 5.6-38.9 5.5 175.3 5.6-111.3 5.6 74.6 5.6-73.9" fill="none" color="#000"/><g fill="none" color="#000" stroke="currentColor"><path stroke="#000" d="M62.2 18.1V428H615V18.1H62.2z"/></g></svg>

<?xml version="1.0" encoding="utf-8"  standalone="no"?>
<svg 
 width="640" height="500"
 viewBox="0 0 640 500"
 xmlns="http://www.w3.org/2000/svg"
 xmlns:xlink="http://www.w3.org/1999/xlink"
>

<title>Gnuplot</title>
<desc>Produced by GNUPLOT 5.4 patchlevel 0 </desc>

<g id="gnuplot_canvas">

<rect x="0" y="0" width="640" height="500" fill="#ffffff"/>
<defs>

	<circle id='gpDot' r='0.5' stroke-width='0.5' stroke='currentColor'/>
	<path id='gpPt0' stroke-width='0.222' stroke='currentColor' d='M-1,0 h2 M0,-1 v2'/>
	<path id='gpPt1' stroke-width='0.222' stroke='currentColor' d='M-1,-1 L1,1 M1,-1 L-1,1'/>
	<path id='gpPt2' stroke-width='0.222' stroke='currentColor' d='M-1,0 L1,0 M0,-1 L0,1 M-1,-1 L1,1 M-1,1 L1,-1'/>
	<rect id='gpPt3' stroke-width='0.222' stroke='currentColor' x='-1' y='-1' width='2' height='2'/>
	<rect id='gpPt4' stroke-width='0.222' stroke='currentColor' fill='currentColor' x='-1' y='-1' width='2' height='2'/>
	<circle id='gpPt5' stroke-width='0.222' stroke='currentColor' cx='0' cy='0' r='1'/>
	<use xlink:href='#gpPt5' id='gpPt6' fill='currentColor' stroke='none'/>
	<path id='gpPt7' stroke-width='0.222' stroke='currentColor' d='M0,-1.33 L-1.33,0.67 L1.33,0.67 z'/>
	<use xlink:href='#gpPt7' id='gpPt8' fill='currentColor' stroke='none'/>
	<use xlink:href='#gpPt7' id='gpPt9' stroke='currentColor' transform='rotate(180)'/>
	<use xlink:href='#gpPt9' id='gpPt10' fill='currentColor' stroke='none'/>
	<use xlink:href='#gpPt3' id='gpPt11' stroke='currentColor' transform='rotate(45)'/>
	<use xlink:href='#gpPt11' id='gpPt12' fill='currentColor' stroke='none'/>
	<path id='gpPt13' stroke-width='0.222' stroke='currentColor' d='M0,1.330 L1.265,0.411 L0.782,-1.067 L-0.782,-1.076 L-1.265,0.411 z'/>
	<use xlink:href='#gpPt13' id='gpPt14' fill='currentColor' stroke='none'/>
	<filter id='textbox' filterUnits='objectBoundingBox' x='0' y='0' height='1' width='1'>
	  <feFlood flood-color='#FFFFFF' flood-opacity='1' result='bgnd'/>
	  <feComposite in='SourceGraphic' in2='bgnd' operator='atop'/>
	</filter>
	<filter id='greybox' filterUnits='objectBoundingBox' x='0' y='0' height='1' width='1'>
	  <feFlood flood-color='lightgrey' flood-opacity='1' result='grey'/>
	  <feComposite in='SourceGraphic' in2='grey' operator='atop'/>
	</filter>
</defs>
<g fill="none" color="#FFFFFF" stroke="black" stroke-width="1.00" stroke-linecap="butt" stroke-linejoin="miter">
</g>
<g fill="none" color="black" stroke="currentColor" stroke-width="1.00" stroke-linecap="butt" stroke-linejoin="miter">
	<path stroke='black'  d='M62.2,389.1 L71.2,389.1 M615.0,389.1 L606.0,389.1  '/>	<g transform="translate(53.9,393.0)" stroke="none" fill="black" font-family="Arial" font-size="12.00"  text-anchor="end">
		<text><tspan font-family="Arial" > 0.7</tspan></text>
	</g>
</g>
<g fill="none" color="black" stroke="currentColor" stroke-width="1.00" stroke-linecap="butt" stroke-linejoin="miter">
	<path stroke='black'  d='M62.2,340.4 L71.2,340.4 M615.0,340.4 L606.0,340.4  '/>	<g transform="translate(53.9,344.3)" stroke="none" fill="black" font-family="Arial" font-size="12.00"  text-anchor="end">
		<text><tspan font-family="Arial" > 0.71</tspan></text>
	</g>
</g>
<g fill="none" color="black" stroke="currentColor" stroke-width="1.00" stroke-linecap="butt" stroke-linejoin="miter">
	<path stroke='black'  d='M62.2,291.8 L71.2,291.8 M615.0,291.8 L606.0,291.8  '/>	<g transform="translate(53.9,295.7)" stroke="none" fill="black" font-family="Arial" font-size="12.00"  text-anchor="end">
		<text><tspan font-family="Arial" > 0.72</tspan></text>
	</g>
</g>
<g fill="none" color="black" stroke="currentColor" stroke-width="1.00" stroke-linecap="butt" stroke-linejoin="miter">
	<path stroke='black'  d='M62.2,243.1 L71.2,243.1 M615.0,243.1 L606.0,243.1  '/>	<g transform="translate(53.9,247.0)" stroke="none" fill="black" font-family="Arial" font-size="12.00"  text-anchor="end">
		<text><tspan font-family="Arial" > 0.73</tspan></text>
	</g>
</g>
<g fill="none" color="black" stroke="currentColor" stroke-width="1.00" stroke-linecap="butt" stroke-linejoin="miter">
	<path stroke='black'  d='M62.2,194.4 L71.2,194.4 M615.0,194.4 L606.0,194.4  '/>	<g transform="translate(53.9,198.3)" stroke="none" fill="black" font-family="Arial" font-size="12.00"  text-anchor="end">
		<text><tspan font-family="Arial" > 0.74</tspan></text>
	</g>
</g>
<g fill="none" color="black" stroke="currentColor" stroke-width="1.00" stroke-linecap="butt" stroke-linejoin="miter">
	<path stroke='black'  d='M62.2,145.7 L71.2,145.7 M615.0,145.7 L606.0,145.7  '/>	<g transform="translate(53.9,149.6)" stroke="none" fill="black" font-family="Arial" font-size="12.00"  text-anchor="end">
		<text><tspan font-family="Arial" > 0.75</tspan></text>
	</g>
</g>
<g fill="none" color="black" stroke="currentColor" stroke-width="1.00" stroke-linecap="butt" stroke-linejoin="miter">
	<path stroke='black'  d='M62.2,97.0 L71.2,97.0 M615.0,97.0 L606.0,97.0  '/>	<g transform="translate(53.9,100.9)" stroke="none" fill="black" font-family="Arial" font-size="12.00"  text-anchor="end">
		<text><tspan font-family="Arial" > 0.76</tspan></text>
	</g>
</g>
<g fill="none" color="black" stroke="currentColor" stroke-width="1.00" stroke-linecap="butt" stroke-linejoin="miter">
	<path stroke='black'  d='M62.2,48.4 L71.2,48.4 M615.0,48.4 L606.0,48.4  '/>	<g transform="translate(53.9,52.3)" stroke="none" fill="black" font-family="Arial" font-size="12.00"  text-anchor="end">
		<text><tspan font-family="Arial" > 0.77</tspan></text>
	</g>
</g>
<g fill="none" color="black" stroke="currentColor" stroke-width="1.00" stroke-linecap="butt" stroke-linejoin="miter">
	<path stroke='black'  d='M62.2,428.0 L62.2,419.0 M62.2,18.1 L62.2,27.1  '/>	<g transform="translate(62.2,449.9)" stroke="none" fill="black" font-family="Arial" font-size="12.00"  text-anchor="middle">
		<text><tspan font-family="Arial" > 0</tspan></text>
	</g>
</g>
<g fill="none" color="black" stroke="currentColor" stroke-width="1.00" stroke-linecap="butt" stroke-linejoin="miter">
	<path stroke='black'  d='M118.0,428.0 L118.0,419.0 M118.0,18.1 L118.0,27.1  '/>	<g transform="translate(118.0,449.9)" stroke="none" fill="black" font-family="Arial" font-size="12.00"  text-anchor="middle">
		<text><tspan font-family="Arial" > 10</tspan></text>
	</g>
</g>
<g fill="none" color="black" stroke="currentColor" stroke-width="1.00" stroke-linecap="butt" stroke-linejoin="miter">
	<path stroke='black'  d='M173.9,428.0 L173.9,419.0 M173.9,18.1 L173.9,27.1  '/>	<g transform="translate(173.9,449.9)" stroke="none" fill="black" font-family="Arial" font-size="12.00"  text-anchor="middle">
		<text><tspan font-family="Arial" > 20</tspan></text>
	</g>
</g>
<g fill="none" color="black" stroke="currentColor" stroke-width="1.00" stroke-linecap="butt" stroke-linejoin="miter">
	<path stroke='black'  d='M229.7,428.0 L229.7,419.0 M229.7,18.1 L229.7,27.1  '/>	<g transform="translate(229.7,449.9)" stroke="none" fill="black" font-family="Arial" font-size="12.00"  text-anchor="middle">
		<text><tspan font-family="Arial" > 30</tspan></text>
	</g>
</g>
<g fill="none" color="black" stroke="currentColor" stroke-width="1.00" stroke-linecap="butt" stroke-linejoin="miter">
	<path stroke='black'  d='M285.6,428.0 L285.6,419.0 M285.6,18.1 L285.6,27.1  '/>	<g transform="translate(285.6,449.9)" stroke="none" fill="black" font-family="Arial" font-size="12.00"  text-anchor="middle">
		<text><tspan font-family="Arial" > 40</tspan></text>
	</g>
</g>
<g fill="none" color="black" stroke="currentColor" stroke-width="1.00" stroke-linecap="butt" stroke-linejoin="miter">
	<path stroke='black'  d='M341.4,428.0 L341.4,419.0 M341.4,18.1 L341.4,27.1  '/>	<g transform="translate(341.4,449.9)" stroke="none" fill="black" font-family="Arial" font-size="12.00"  text-anchor="middle">
		<text><tspan font-family="Arial" > 50</tspan></text>
	</g>
</g>
<g fill="none" color="black" stroke="currentColor" stroke-width="1.00" stroke-linecap="butt" stroke-linejoin="miter">
	<path stroke='black'  d='M397.2,428.0 L397.2,419.0 M397.2,18.1 L397.2,27.1  '/>	<g transform="translate(397.2,449.9)" stroke="none" fill="black" font-family="Arial" font-size="12.00"  text-anchor="middle">
		<text><tspan font-family="Arial" > 60</tspan></text>
	</g>
</g>
<g fill="none" color="black" stroke="currentColor" stroke-width="1.00" stroke-linecap="butt" stroke-linejoin="miter">
	<path stroke='black'  d='M453.1,428.0 L453.1,419.0 M453.1,18.1 L453.1,27.1  '/>	<g transform="translate(453.1,449.9)" stroke="none" fill="black" font-family="Arial" font-size="12.00"  text-anchor="middle">
		<text><tspan font-family="Arial" > 70</tspan></text>
	</g>
</g>
<g fill="none" color="black" stroke="currentColor" stroke-width="1.00" stroke-linecap="butt" stroke-linejoin="miter">
	<path stroke='black'  d='M508.9,428.0 L508.9,419.0 M508.9,18.1 L508.9,27.1  '/>	<g transform="translate(508.9,449.9)" stroke="none" fill="black" font-family="Arial" font-size="12.00"  text-anchor="middle">
		<text><tspan font-family="Arial" > 80</tspan></text>
	</g>
</g>
<g fill="none" color="black" stroke="currentColor" stroke-width="1.00" stroke-linecap="butt" stroke-linejoin="miter">
	<path stroke='black'  d='M564.7,428.0 L564.7,419.0 M564.7,18.1 L564.7,27.1  '/>	<g transform="translate(564.7,449.9)" stroke="none" fill="black" font-family="Arial" font-size="12.00"  text-anchor="middle">
		<text><tspan font-family="Arial" > 90</tspan></text>
	</g>
</g>
<g fill="none" color="black" stroke="currentColor" stroke-width="1.00" stroke-linecap="butt" stroke-linejoin="miter">
</g>
<g fill="none" color="black" stroke="currentColor" stroke-width="1.00" stroke-linecap="butt" stroke-linejoin="miter">
	<path stroke='black'  d='M62.2,18.1 L62.2,428.0 L615.0,428.0 L615.0,18.1 L62.2,18.1 Z  '/></g>
<g fill="none" color="black" stroke="currentColor" stroke-width="1.00" stroke-linecap="butt" stroke-linejoin="miter">
</g>
	<g id="gnuplot_plot_1" ><title>pages+cached+noexternal</title>
<g fill="none" color="black" stroke="currentColor" stroke-width="1.00" stroke-linecap="butt" stroke-linejoin="miter">
	<g transform="translate(437.8,467.9)" stroke="none" fill="black" font-family="Arial" font-size="12.00"  text-anchor="end">
		<text><tspan font-family="Arial" >pages+cached+noexternal</tspan></text>
	</g>
</g>
<g fill="none" color="black" stroke="currentColor" stroke-width="1.00" stroke-linecap="butt" stroke-linejoin="miter">
	<path stroke='rgb(148,   0, 211)'  d='M446.1,464.0 L488.3,464.0 M62.2,418.8 L67.8,270.4 L73.4,265.3 L79.0,351.5 L84.5,270.5 L90.1,270.9
		L95.7,250.0 L101.3,264.7 L106.9,310.4 L112.5,310.4 L118.0,291.8 L123.6,310.8 L129.2,296.6 L134.8,296.5
		L140.4,193.8 L146.0,364.7 L151.5,284.1 L157.1,312.0 L162.7,290.3 L168.3,292.0 L173.9,291.4 L179.5,420.1
		L185.0,270.5 L190.6,250.1 L196.2,265.5 L201.8,303.6 L207.4,265.5 L213.0,290.1 L218.5,284.6 L224.1,350.9
		L229.7,270.7 L235.3,373.5 L240.9,270.6 L246.5,193.8 L252.1,310.8 L257.6,250.0 L263.2,264.5 L268.8,195.2
		L274.4,296.4 L280.0,290.6 L285.6,296.6 L291.1,264.9 L296.7,276.2 L302.3,347.8 L307.9,193.7 L313.5,270.1
		L319.1,283.4 L324.6,192.9 L330.2,351.2 L335.8,194.5 L341.4,291.4 L347.0,291.5 L352.6,374.9 L358.1,310.0
		L363.7,266.1 L369.3,193.7 L374.9,419.0 L380.5,365.8 L386.1,310.8 L391.6,290.9 L397.2,250.4 L402.8,311.2
		L408.4,311.9 L414.0,374.8 L419.6,372.1 L425.1,302.8 L430.7,194.7 L436.3,292.1 L441.9,372.7 L447.5,264.5
		L453.1,269.9 L458.7,269.4 L464.2,264.8 L469.8,374.2 L475.4,250.0 L481.0,290.2 L486.6,419.8 L492.2,352.1
		L497.7,271.3 L503.3,296.2 L508.9,265.7 L514.5,284.3 L520.1,351.9 L525.7,270.3 L531.2,271.0 L536.8,310.1
		L542.4,288.4 L548.0,283.5 L553.6,351.7 L559.2,195.1 L564.7,373.4 L570.3,249.8 L575.9,373.1 L581.5,295.6
		L587.1,288.6 L592.7,373.1 L598.2,270.3 L603.8,290.2 L609.4,311.3 L615.0,270.5  '/></g>
	</g>
	<g id="gnuplot_plot_2" ><title>pages+cached+noexternal+nofonts</title>
<g fill="none" color="black" stroke="currentColor" stroke-width="1.00" stroke-linecap="butt" stroke-linejoin="miter">
	<g transform="translate(437.8,485.9)" stroke="none" fill="black" font-family="Arial" font-size="12.00"  text-anchor="end">
		<text><tspan font-family="Arial" >pages+cached+noexternal+nofonts</tspan></text>
	</g>
</g>
<g fill="none" color="black" stroke="currentColor" stroke-width="1.00" stroke-linecap="butt" stroke-linejoin="miter">
	<path stroke='rgb(  0, 158, 115)'  d='M446.1,482.0 L488.3,482.0 M62.2,97.7 L67.8,34.2 L73.4,168.2 L79.0,115.3 L84.5,115.1 L90.1,105.3
		L95.7,33.4 L101.3,191.5 L106.9,26.4 L112.5,242.4 L118.0,208.6 L123.6,33.8 L129.2,104.9 L134.8,33.7
		L140.4,168.0 L146.0,105.2 L151.5,172.2 L157.1,172.1 L162.7,172.1 L168.3,83.1 L173.9,33.9 L179.5,98.7
		L185.0,126.0 L190.6,215.2 L196.2,168.0 L201.8,97.3 L207.4,171.9 L213.0,104.9 L218.5,105.2 L224.1,172.0
		L229.7,242.2 L235.3,84.1 L240.9,171.7 L246.5,115.3 L252.1,84.4 L257.6,241.8 L263.2,33.7 L268.8,97.8
		L274.4,105.6 L280.0,105.5 L285.6,85.4 L291.1,34.0 L296.7,83.7 L302.3,168.0 L307.9,168.2 L313.5,141.9
		L319.1,105.1 L324.6,73.2 L330.2,33.7 L335.8,83.9 L341.4,84.4 L347.0,167.9 L352.6,105.2 L358.1,97.7
		L363.7,82.8 L369.3,214.9 L374.9,141.8 L380.5,83.2 L386.1,105.3 L391.6,104.9 L397.2,26.2 L402.8,105.2
		L408.4,34.3 L414.0,241.9 L419.6,33.7 L425.1,83.8 L430.7,83.9 L436.3,172.3 L441.9,242.5 L447.5,167.9
		L453.1,105.0 L458.7,105.2 L464.2,172.1 L469.8,26.0 L475.4,83.3 L481.0,168.3 L486.6,83.4 L492.2,89.7
		L497.7,142.3 L503.3,185.6 L508.9,172.4 L514.5,171.9 L520.1,33.5 L525.7,33.6 L531.2,90.8 L536.8,105.4
		L542.4,83.3 L548.0,33.8 L553.6,171.9 L559.2,241.6 L564.7,105.3 L570.3,105.4 L575.9,168.3 L581.5,34.2
		L587.1,72.4 L592.7,33.5 L598.2,208.8 L603.8,97.5 L609.4,172.1 L615.0,98.2  '/></g>
	</g>
<g fill="none" color="#FFFFFF" stroke="rgb(  0, 158, 115)" stroke-width="2.00" stroke-linecap="butt" stroke-linejoin="miter">
</g>
<g fill="none" color="black" stroke="currentColor" stroke-width="2.00" stroke-linecap="butt" stroke-linejoin="miter">
</g>
<g fill="none" color="black" stroke="black" stroke-width="1.00" stroke-linecap="butt" stroke-linejoin="miter">
</g>
<g fill="none" color="black" stroke="currentColor" stroke-width="1.00" stroke-linecap="butt" stroke-linejoin="miter">
	<path stroke='black'  d='M62.2,18.1 L62.2,428.0 L615.0,428.0 L615.0,18.1 L62.2,18.1 Z  '/></g>
<g fill="none" color="black" stroke="currentColor" stroke-width="1.00" stroke-linecap="butt" stroke-linejoin="miter">
</g>
</g>
</svg>
